src/lib/packages/icons/src/assets/filled/camera-rotate.svg

<svg width="24" height="24" viewBox="0 0 24 24" fill="none" xmlns="http://www.w3.org/2000/svg">
<path d="M18 7H16L15.342 5.02588C15.138 4.41288 14.5649 4 13.9189 4H10.0811C9.43505 4 8.86196 4.41288 8.65796 5.02588L8 7H6C4 7 3 8 3 10V18C3 20 4 21 6 21H18C20 21 21 20 21 18V10C21 8 20 7 18 7ZM15.812 15.8101C15.139 17.2921 13.639 18.25 11.99 18.25C11.073 18.25 10.203 17.9401 9.48999 17.4131V17.4771C9.48999 17.8911 9.15399 18.2271 8.73999 18.2271C8.32599 18.2271 7.98999 17.8911 7.98999 17.4771V15.2791C7.98999 15.2731 7.9929 15.267 7.9939 15.261C7.9949 15.204 8.0131 15.1509 8.0271 15.0969C8.0371 15.0559 8.03988 15.0141 8.05688 14.9761C8.07688 14.9321 8.10896 14.8959 8.13696 14.8569C8.16396 14.8179 8.18597 14.7749 8.21997 14.7419C8.24997 14.7129 8.28995 14.6949 8.32495 14.6709C8.37095 14.6399 8.41309 14.605 8.46509 14.585C8.47109 14.583 8.47496 14.577 8.48096 14.575C8.52296 14.56 8.56393 14.5639 8.60693 14.5559C8.65093 14.5479 8.69201 14.5291 8.73901 14.5291H10.9309C11.3449 14.5291 11.6809 14.8651 11.6809 15.2791C11.6809 15.6931 11.3449 16.0291 10.9309 16.0291H10.156C10.649 16.4801 11.299 16.749 11.989 16.749C13.051 16.749 14.015 16.137 14.446 15.189C14.617 14.812 15.065 14.6469 15.438 14.8159C15.817 14.9879 15.984 15.4331 15.812 15.8101ZM15.99 12.72C15.99 12.725 15.9871 12.7301 15.9871 12.7351C15.9861 12.7931 15.9671 12.8459 15.9541 12.9009C15.9441 12.9409 15.942 12.984 15.926 13.021C15.907 13.064 15.8739 13.0989 15.8469 13.1379C15.8199 13.1779 15.7989 13.2209 15.7639 13.2549C15.7349 13.2839 15.6961 13.3 15.6621 13.324C15.6161 13.357 15.572 13.3931 15.519 13.4141C15.514 13.4161 15.5111 13.4201 15.5071 13.4221C15.4191 13.4551 15.329 13.47 15.241 13.47H13.0491C12.6351 13.47 12.2991 13.134 12.2991 12.72C12.2991 12.306 12.6351 11.97 13.0491 11.97H13.825C13.325 11.512 12.6779 11.25 11.9919 11.25C10.9369 11.25 9.97198 11.8639 9.53198 12.8149C9.35798 13.1909 8.91489 13.3559 8.53589 13.1809C8.15989 13.0069 7.9969 12.5611 8.1709 12.1851C8.8559 10.7061 10.3559 9.75 11.9919 9.75C12.9089 9.75 13.7789 10.058 14.4919 10.582V10.5229C14.4919 10.1089 14.8279 9.77295 15.2419 9.77295C15.6559 9.77295 15.9919 10.1089 15.9919 10.5229V12.72H15.99Z" fill="currentColor"/>
</svg>

<svg xmlns="http://www.w3.org/2000/svg" width="24" height="24" fill="none"><path fill="currentColor" d="M18 7h-2l-.658-1.974A1.5 1.5 0 0 0 13.919 4H10.08a1.5 1.5 0 0 0-1.423 1.026L8 7H6c-2 0-3 1-3 3v8c0 2 1 3 3 3h12c2 0 3-1 3-3v-8c0-2-1-3-3-3Zm-2.188 8.81a4.195 4.195 0 0 1-3.822 2.44 4.21 4.21 0 0 1-2.5-.837v.064a.75.75 0 0 1-1.5 0V15.28c0-.006.003-.012.004-.018 0-.057.02-.11.033-.164.01-.041.013-.083.03-.12.02-.045.052-.081.08-.12.027-.04.049-.082.083-.115.03-.03.07-.047.105-.071.046-.031.088-.066.14-.086.006-.002.01-.008.016-.01.042-.015.083-.011.126-.02.044-.007.085-.026.132-.026h2.192a.75.75 0 0 1 0 1.5h-.775a2.72 2.72 0 0 0 1.833.72 2.693 2.693 0 0 0 2.457-1.56.75.75 0 1 1 1.366.621Zm.178-3.09-.003.015c0 .058-.02.11-.033.166-.01.04-.012.083-.028.12-.019.043-.052.078-.08.117-.026.04-.047.083-.082.117-.03.029-.068.045-.102.069-.046.033-.09.07-.143.09-.005.002-.008.006-.012.008a.756.756 0 0 1-.266.048h-2.192a.75.75 0 0 1 0-1.5h.776a2.708 2.708 0 0 0-4.293.845.749.749 0 1 1-1.361-.63 4.222 4.222 0 0 1 3.82-2.435c.918 0 1.788.308 2.5.832v-.06a.75.75 0 0 1 1.5 0v2.198h-.001Z"/></svg>
